X: 263
T: Jiao gaor
%%abc-version 2.0
%%abcx-abcm2ps-target-version 5.9.1 (29 Sep 2008)
%%abc-creator hum2abc beta
%%abcx-conversion-date 2013/10/02 07:52:29
%%abc-edited-by Helmut Schaffrath
%%humdrum-veritas 2900828470
%%humdrum-veritas-data 3075586476
%%continueall 1
%%barnumbers 0
L: 1/8
M: 2/4
K: C
C2C2 [I:setbarnb 1]| 
A, C A, G, | 
G A/ G/F2 | 
A2A A | 
G A E D | 
C D/ A,/C2 | 
F DF2 | 
GA2G | 
F3G | 
D CA,2 | 
D D D E | 
D CA,2 | 
C3D | 
C4 |]  



